X: 1
T: Boom Boom Geoffrion
C: (unknown)
R: reel
S: Fiddle Hell Online 2021-11-7 workshop with \'Eric Favreau
Z: 2021 John Chambers <jc:trillian.mit.edu>
M: C
L: 1/8
K: G	% and Em
D2 |\
GFGA BBGB | d2G2 F3E | D2c2 cBcE | D2B2 B"#"ABD |
GFGA BBGB | d2G2 F3E | D2c2 cAFA | G2B2 G2 :|
|: z2 |\
B^def gfed | e2c2 B3B |  c2B2 AAGA | B2G2 F4 |
B^def gfed | e2c2 B3c |1 B2Bc BAGF | EEGB e2 \
                     :|2 B2Bc BAB^d | e2B2 E2 :|
%%begintext align
%% \'Eric learned this tune from his father.
%% It was written for Joseph Bernard Andr\'e "Boom Boom" Geoffrion,
%% who was a popular ice hockey player with the Canadiens
%% de Montr\'eal from 1950 to 1968.
%% (Composer unknown)
%%endtext
